!!!OTL: 574a. Alte Liebe rostet nicht.
!!!ARE: Europa, Mitteleuropa, Deutschland, Hessen, Odenwald
!!!SCT: E0574A
!!!TXL: @@DE
!!!YEM: Copyright 1995, estate of Helmut Schaffrath.
**kern	**text
*ICvox	*
*M4/4	*
*met(c)	*
*k[b-]	*
*F:	*
=1	=1
!LO:TX:a:t=Sehr mäßig.	!
!LO:TX:a:t=Aus dem Odenwald. Erk III, 1, 26.	!
{4.f	Ach,
8g	was
4a	thut
8cc	mir
8a	mein
=2	=2
8aL	Herʒ-
8gJ	.
8g	-che
8g	ſo
4f	weh,
8r}	.
{8g	weil
=3	=3
8a	ich
8g	es
8a	bei
8cc	meim
8ddL	Schätʒche
8ccJ	.
8cc	.
8cc	in
=4	=4
8ccL	Un-
8b-J	.
4b-	-gnad
4a	ſteh;
8r}	.
{8b-	in
=5	=5
8aL	Un-
8ccJ	.
8ccL	-gnad
8ffJ	.
4.dd}	ſteh',
{8cc	das
=6	=6
8cc	krän-
8b-	-ket
8b-	mich
8dd	ſo
4.cc}	ſehr,
{8b-	ich
=7	=7
(8a	ſoll
8g	mein
8a)	Schatʒ
8b-	ver-
(8aqq	.
4cc)	-laſ-
8cc}	-ſen,
{8cc	und
=8	=8
(8ccqq	.
4b-)	das
4cc	thut
2a}	weh.
==	==
!!!AGN: Liebes - Lied
!!!ONB: ESAC (Essen Associative Code) Database: ERK1
!!!AMT: simple quadruple
!!!AIN: vox
!!!EED: Helmut Schaffrath
!!!EEV: 1.0
!!!GTL: Liebeslieder [Neuere (aus dem 18. bis 19. Jahrh.) - Liebeslust]
!!!URL-scan: https://rosdok.uni-rostock.de/mcrviewer/recordIdentifier/rosdok_ppn745177662/iview2/phys_0405.iview2?x=-128.77276441889308&y=141.384980060393&scale=0.5870222003877485&rotation=0&layout=singlePageLayout
!!!ENC: Anna Maria Matuszewska
!!!EEV: 2024/11/12
*-	*-
